packages/ui-icons/src/System/24/Rating_1_24.svg

<svg xmlns="http://www.w3.org/2000/svg" viewBox="0 0 32 32" style="enable-background:new 0 0 32 32" xml:space="preserve"><path d="M16 28C9.4 28 4 22.6 4 16S9.4 4 16 4s12 5.4 12 12-5.4 12-12 12zm0-2c5.5 0 10-4.5 10-10S21.5 6 16 6 6 10.5 6 16s4.5 10 10 10zm4.7-5.7-1.4 1.4C18.1 20.5 17.2 20 16 20s-2.1.5-3.3 1.7l-1.4-1.4c1.5-1.5 2.9-2.3 4.7-2.3 1.9 0 3.2.8 4.7 2.3zM12.5 15c-.8 0-1.5-.7-1.5-1.5s.7-1.5 1.5-1.5 1.5.7 1.5 1.5-.7 1.5-1.5 1.5zm7 0c-.8 0-1.5-.7-1.5-1.5s.7-1.5 1.5-1.5 1.5.7 1.5 1.5-.7 1.5-1.5 1.5z"/></svg>

<?xml version="1.0" encoding="utf-8"?>
<!-- Generator: Adobe Illustrator 23.0.1, SVG Export Plug-In . SVG Version: 6.00 Build 0)  -->
<svg version="1.1" id="Layer_1" xmlns="http://www.w3.org/2000/svg" xmlns:xlink="http://www.w3.org/1999/xlink" x="0px" y="0px"
	 viewBox="0 0 32 32" style="enable-background:new 0 0 32 32;" xml:space="preserve">
<title>Source/System Icons/24/Rating_1_24</title>
<desc>Created with Sketch.</desc>
<path d="M16,28C9.4,28,4,22.6,4,16S9.4,4,16,4s12,5.4,12,12S22.6,28,16,28z M16,26c5.5,0,10-4.5,10-10S21.5,6,16,6S6,10.5,6,16
	S10.5,26,16,26z M20.7,20.3l-1.4,1.4C18.1,20.5,17.2,20,16,20s-2.1,0.5-3.3,1.7l-1.4-1.4c1.5-1.5,2.9-2.3,4.7-2.3
	C17.9,18,19.2,18.8,20.7,20.3z M12.5,15c-0.8,0-1.5-0.7-1.5-1.5s0.7-1.5,1.5-1.5s1.5,0.7,1.5,1.5S13.3,15,12.5,15z M19.5,15
	c-0.8,0-1.5-0.7-1.5-1.5s0.7-1.5,1.5-1.5s1.5,0.7,1.5,1.5S20.3,15,19.5,15z"/>
</svg>
